X: 10
T:Saturday Night
M:6/8
L:1/8
Q:110
S:Badby Morris Dance
K:G
BcB BAG| BcB A2 G| Bcd dBG| DEF G3:| |:Bcd dBG|Bcd g3| Bcd dBG|Bcd g3|Bc
d dBG| ABA ABc| d2c B2 A|G3 D3| G2 A BcB| A3 A3|BcB BAG|BcB A2 G|Bcd dBG
| DEF G2:|
